Obsidian-SemiLight/actions/24s/media-random-tracks-amarok.svg

<svg viewBox="0 0 24 24" xmlns="http://www.w3.org/2000/svg"><path d="m5.5 4c-.8284213 0-1.4999917.6715704-1.5 1.5.0000083.8284296.6715787 1.5 1.5 1.5s1.4999917-.6715704 1.5-1.5c-.0000083-.8284296-.6715787-1.5-1.5-1.5zm2.5 1v1h1v-1zm2 0v1h10v-1zm0 2v1h3v-1zm-4.5 3c-.8284268-.0000012-1.5.671572-1.5 1.5s.6715732 1.500001 1.5 1.5c.8284268.000001 1.5-.671572 1.5-1.5s-.6715732-1.5000012-1.5-1.5zm2.5 1v1h1v-1zm10 1v1h-1-.023438c-1.649006 0-2.976562 1.327554-2.976562 2.976562v.023438c0 1.108-.892 2-2 2h-3v1h3 .023438c1.649006 0 2.976562-1.327554 2.976562-2.976562v-.023438c0-1.108.892-2 2-2h1v1l2-1.5zm-9 1v1h3c.3989 0 .766765.118679 1.078125.318359.0757-.33686.209872-.64922.388672-.93164-.42888-.23891-.915689-.386719-1.443359-.386719h-.023438zm-3.5 3c-.8284268-.000001-1.5.671572-1.5 1.5s.6715732 1.500001 1.5 1.5c.8284268.000001 1.5-.671572 1.5-1.5s-.6715732-1.500001-1.5-1.5zm12.5 1v1h-1c-.3989 0-.766755-.118679-1.078125-.318359-.0757.33686-.209872.64922-.388672.93164.42888.23891.915689.386719 1.443359.386719h.023438 1v1l2-1.5z" fill="#4d4d4d"/></svg>

<svg xmlns="http://www.w3.org/2000/svg" viewBox="0 0 24 24">
  <defs id="defs3051">
    <style type="text/css" id="current-color-scheme">
      .ColorScheme-Text {
        color:#4d4d4d;
      }
      </style>
  </defs>
 <path style="fill:currentColor;fill-opacity:1;stroke:none" 
     d="M 5.5 4 C 4.6715787 4 4.0000083 4.6715704 4 5.5 C 4.0000083 6.3284296 4.6715787 7 5.5 7 C 6.3284213 7 6.9999917 6.3284296 7 5.5 C 6.9999917 4.6715704 6.3284213 4 5.5 4 z M 8 5 L 8 6 L 9 6 L 9 5 L 8 5 z M 10 5 L 10 6 L 20 6 L 20 5 L 10 5 z M 10 7 L 10 8 L 13 8 L 13 7 L 10 7 z M 5.5 10 C 4.6715732 9.9999988 4 10.671572 4 11.5 C 4 12.328428 4.6715732 13.000001 5.5 13 C 6.3284268 13.000001 7 12.328428 7 11.5 C 7 10.671572 6.3284268 9.9999988 5.5 10 z M 8 11 L 8 12 L 9 12 L 9 11 L 8 11 z M 18 12 L 18 13 L 17 13 L 16.976562 13 C 15.327556 13 14 14.327554 14 15.976562 L 14 16 C 14 17.108 13.108 18 12 18 L 9 18 L 9 19 L 12 19 L 12.023438 19 C 13.672444 19 15 17.672446 15 16.023438 L 15 16 C 15 14.892 15.892 14 17 14 L 18 14 L 18 15 L 20 13.5 L 18 12 z M 9 13 L 9 14 L 12 14 C 12.3989 14 12.766765 14.118679 13.078125 14.318359 C 13.153825 13.981499 13.287997 13.669139 13.466797 13.386719 C 13.037917 13.147809 12.551108 13 12.023438 13 L 12 13 L 9 13 z M 5.5 16 C 4.6715732 15.999999 4 16.671572 4 17.5 C 4 18.328428 4.6715732 19.000001 5.5 19 C 6.3284268 19.000001 7 18.328428 7 17.5 C 7 16.671572 6.3284268 15.999999 5.5 16 z M 18 17 L 18 18 L 17 18 C 16.6011 18 16.233245 17.881321 15.921875 17.681641 C 15.846175 18.018501 15.712003 18.330861 15.533203 18.613281 C 15.962083 18.852191 16.448892 19 16.976562 19 L 17 19 L 18 19 L 18 20 L 20 18.5 L 18 17 z "
     class="ColorScheme-Text"
     />
</svg>
